svg/Group 44.svg

<svg width="178" height="361" viewBox="0 0 178 361" fill="none" xmlns="http://www.w3.org/2000/svg">
<path d="M3 173.112C6.66184 227.581 5.46809 282.211 5.46809 336.81C5.46809 338.323 5.40435 344.204 5.46809 343.249C5.68104 340.057 10.2552 340.783 12.3239 340.783C29.2818 340.783 43.9266 353.112 61 353.112" stroke="#4D4D4D" stroke-width="3" stroke-linecap="round"/>
<path d="M60 353.112C60 333.357 59.5462 313.519 58.2594 293.816C56.7468 270.654 52.9776 246.713 54.2626 223.485C54.8763 212.391 56.1452 201.639 56.5189 190.513C56.5976 188.17 57.6793 181.245 57.6793 183.589C57.6793 185.806 57.6793 188.022 57.6793 190.238" stroke="#4D4D4D" stroke-width="3" stroke-linecap="round"/>
<path d="M59 187.112C80.057 178.73 101.735 169.844 120.25 156.976C125.286 153.477 131.474 151.454 136.5 147.922C140.015 145.452 144.444 142.112 149 142.112" stroke="#4D4D4D" stroke-width="3" stroke-linecap="round"/>
<path d="M14 180.112C27.551 180.317 40.7241 184.523 54.1519 186.338C56.0031 186.588 65.3798 187.903 62.4306 186.408" stroke="#4D4D4D" stroke-width="3" stroke-linecap="round"/>
<path d="M60 186.112C54.8723 191.151 50.2549 199.179 44.7222 203.312C40.4205 206.525 37.7101 213.572 33.125 216.075C32.0862 216.643 28.0742 210.379 26.875 209.386C23.59 206.667 20.2631 204.138 16.9444 201.469C13.9191 199.036 11.6868 193.113 10 189.797" stroke="#4D4D4D" stroke-width="3" stroke-linecap="round"/>
<path d="M2 170.112C14.3269 169.019 24.7657 160.387 36.015 156.228C45.3753 152.766 55.8953 150.851 64.7756 146.522C69.5384 144.201 75.2399 142.847 79.7782 140.389C80.6255 139.93 87.3529 137 84.1337 138.569" stroke="#4D4D4D" stroke-width="3" stroke-linecap="round"/>
<path d="M108 137.112C107.615 143.368 96.6974 147.112 91 147.112" stroke="#4D4D4D" stroke-width="3" stroke-linecap="round"/>
<path d="M107 127.112C120.708 127.112 135.641 127.381 148.548 131.969C152.634 133.421 155.157 135.612 159.66 135.612C161.211 135.612 157.024 137.211 155.726 138.04C152.236 140.271 148.876 141.371 145.512 144.112" stroke="#4D4D4D" stroke-width="3" stroke-linecap="round"/>
<path d="M155 139.112C155 157.521 160 175.362 160 193.719C160 210.092 160 226.466 160 242.839C160 256.478 157.5 269.87 157.5 283.589C157.5 289.763 157.5 295.937 157.5 302.112" stroke="#4D4D4D" stroke-width="3" stroke-linecap="round"/>
<path d="M63 359.112C77.1683 355.17 89.8333 344.557 101.899 336.501C113.132 329.001 124.43 323.312 134.824 314.795C140.334 310.28 146.458 306.298 151.772 301.507C154.281 299.246 160.595 295.64 154.273 297.75" stroke="#4D4D4D" stroke-width="3" stroke-linecap="round"/>
<path d="M87.5 148.111C87.8902 114.943 90 81.7783 90 48.6115C90 45.7196 87.7857 27.6115 93.2778 27.6115C97.3639 27.6115 101.216 24.3131 105.25 23.6115C109.566 22.8608 113.563 21.5267 117.5 19.6115C122.228 17.3115 127.326 16.3191 132.222 14.5004C137.223 12.643 142.117 10.777 147.389 9.72261C153.828 8.43477 160.228 5.78779 166.25 3.11149C167.672 2.47934 165.675 5.1507 165.5 6.11149C165.022 8.73787 164.5 11.4048 164.5 14.0837C164.5 18.5874 168.86 19.0501 171.472 16.1115C174.008 13.2586 175.898 8.44043 175.472 4.61149C175.177 1.95863 169.345 1.09401 168 3.11149" stroke="#4D4D4D" stroke-width="3" stroke-linecap="round"/>
<path d="M162.5 21.1116C153.8 21.1116 145.116 23.8215 136.666 25.7227C130.083 27.204 123.806 29.6724 117.472 31.8893C116.165 32.3469 104.172 37.7834 104.5 38.1116" stroke="#4D4D4D" stroke-width="3" stroke-linecap="round"/>
<path d="M97 34.6116C98.7226 39.3967 100.019 39.1116 104.5 39.1116" stroke="#4D4D4D" stroke-width="3" stroke-linecap="round"/>
<path d="M104 37.6116C104 42.7423 105 47.7447 105 52.806C105 58.1545 104.782 63.5256 105.389 68.8338C106.117 75.2008 105.152 81.7453 105.528 88.1394C105.946 95.2557 106.5 102.365 106.5 109.5C106.5 119.371 106.5 129.241 106.5 139.112" stroke="#4D4D4D" stroke-width="3" stroke-linecap="round"/>
<path d="M115 260.302C104.487 260.38 95.9189 261.142 86 264.914C81.4753 266.634 76 272.055 76 277.302C76 280.5 78.7121 284.65 81.9722 285.302C87.5095 286.41 92.8534 286.302 98.5 286.302C104.359 286.302 111.595 286.232 116.722 283.302C117.341 282.949 117.854 282.533 118.5 282.191C119.71 281.551 118.657 281.58 117.972 280.552C116.76 278.735 111.632 276.538 111.5 274.302C111.343 271.638 117.748 274.601 119 274.914C121.581 275.559 124.113 276.302 126.75 276.302C129.279 276.302 130.256 277.129 132.778 275.525C134.78 274.25 138.5 272.958 138.5 270.302C138.5 264.308 131.5 262.302 126.75 261.302C120.5 260.319 118.411 260.319 113.5 260.319" stroke="#4D4D4D" stroke-width="3" stroke-linecap="round"/>
<path d="M118.5 282.802C118.5 285.576 117.799 288.218 118.028 291.08C118.114 292.16 118.563 297.676 119 296.802" stroke="#4D4D4D" stroke-width="3" stroke-linecap="round"/>
<path d="M131.905 276.802C131.905 280.303 132.508 283.263 132.837 286.661C132.89 287.206 133.29 292.389 132.598 292.592C130.215 293.294 125.61 292.057 123.274 291.521C121.438 291.101 119.89 290.643 118 290.643" stroke="#4D4D4D" stroke-width="3" stroke-linecap="round"/>
<path d="M119 298.802C115.357 303.863 104.48 302.696 99.0002 303.552C91.6261 304.705 85.3437 304.297 78.7225 300.802C74.4508 298.548 76.5002 294.649 76.5002 290.552C76.5002 286.636 76.5002 282.719 76.5002 278.802" stroke="#4D4D4D" stroke-width="3" stroke-linecap="round"/>
<path d="M132 294.302C135.378 294.302 136.377 291.295 139 289.691C140.187 288.966 139.5 284.469 139.5 283.302C139.5 280.923 139 278.704 139 276.302C139 274.462 139.236 271.408 137 272.302" stroke="#4D4D4D" stroke-width="3" stroke-linecap="round"/>
<path d="M120.25 245.927C121.936 246.77 123.572 247.669 125.299 248.427C126.253 248.846 127.188 249.429 128.188 249.733C129.454 250.118 130.637 250.436 131.75 251.177" stroke="#4D4D4D" stroke-width="3" stroke-linecap="round"/>
<path d="M131.75 250.927C132.065 249.547 131.455 248.113 131.278 246.733C131.136 245.631 130.851 244.545 130.653 243.455C130.472 242.459 130.375 241.313 130.375 240.302" stroke="#4D4D4D" stroke-width="3" stroke-linecap="round"/>
<path d="M130.375 239.177C132.717 237.856 135.348 237.031 137.847 236.052C138.201 235.914 140.411 235.41 140.25 234.927" stroke="#4D4D4D" stroke-width="3" stroke-linecap="round"/>
<path d="M140.125 235.052C140.125 237.837 140.375 240.587 140.375 243.372C140.375 244.221 140.25 245.063 140.25 245.9C140.25 246.396 140.493 247.177 139.875 247.177" stroke="#4D4D4D" stroke-width="3" stroke-linecap="round"/>
<path d="M140 246.927C138.185 248.362 136.06 249.071 134.125 250.302C133.717 250.562 133.288 250.92 132.875 251.15C132.574 251.317 132.572 251.695 132.25 251.802" stroke="#4D4D4D" stroke-width="3" stroke-linecap="round"/>
<path d="M117 235.302C119.783 236.614 122.636 237.92 125.625 238.677C126.367 238.866 127.148 239.016 127.875 239.247C128.346 239.397 128.746 239.677 129.25 239.677" stroke="#4D4D4D" stroke-width="3" stroke-linecap="round"/>
<path d="M118.375 233.052C121.362 232.803 124.232 233.502 127.188 233.872C129.31 234.137 131.369 234.177 133.5 234.177C135.813 234.177 138.058 234.802 140.375 234.802" stroke="#4D4D4D" stroke-width="3" stroke-linecap="round"/>
<path d="M117.125 233.302C117.125 234.781 117.373 236.325 117.75 237.761C118.084 239.033 118.238 240.365 118.625 241.622C119.02 242.904 119.57 244.593 119.125 245.927" stroke="#4D4D4D" stroke-width="3" stroke-linecap="round"/>
<path d="M71 199.5C71 202.082 72.3658 213.067 70.5 214" stroke="#4D4D4D" stroke-width="3" stroke-linecap="round"/>
<path d="M70.5 201C70.6131 199.077 73.6597 195.734 75 198.75C75.9169 200.813 75.6008 203.477 74.2222 205.25C73.8268 205.758 72.173 207 72.5 207C73.8376 207 74.6435 206.922 75.5 208.111C76.2258 209.119 79.7787 210.611 79 211" stroke="#4D4D4D" stroke-width="3" stroke-linecap="round"/>
<path d="M82.5 196C82.5 198.676 82.5 201.352 82.5 204.028C82.5 204.791 82.9397 209.621 83.5 208.5" stroke="#4D4D4D" stroke-width="3" stroke-linecap="round"/>
<path d="M94 190C92.2049 191.901 89.5 195.095 89.5 197.75C89.5 199.246 92.6854 197.993 92.9722 200C93.2298 201.803 93.397 205.041 92.5 206.611C92.1547 207.215 90 211.069 90 208.5" stroke="#4D4D4D" stroke-width="3" stroke-linecap="round"/>
<path d="M99 188.5C99.7563 190.202 100.675 202.163 99 203" stroke="#4D4D4D" stroke-width="3" stroke-linecap="round"/>
<path d="M106 185.5C106 188.422 105.051 190.898 103.75 193.5C103.461 194.078 101.049 197 102.25 197C103.611 197 106.229 196.551 106.889 198.111C107.352 199.206 108 202.689 108 201.5" stroke="#4D4D4D" stroke-width="3" stroke-linecap="round"/>
<path d="M115.5 189.5C118.192 188.311 120.329 186.177 123.25 185.528C124.915 185.158 127.173 185 128.889 185C132.277 185 134.935 191.075 135 193.889C135.191 202.083 135 210.303 135 218.5C135 221.237 133.67 217.67 132.5 216.5C132.049 216.049 131.649 215.48 131.222 215C130.992 214.741 131.113 213.556 130.75 213.556C130.302 213.556 131.725 216.173 131.889 216.5C132.272 217.267 135.011 221.079 135.611 220C136.535 218.338 137.559 216.233 138.75 214.778C139.071 214.386 140.382 213 140 213" stroke="#4D4D4D" stroke-width="3" stroke-linecap="round"/>
</svg>

<svg xmlns="http://www.w3.org/2000/svg" width="178" height="361" fill="none"><path stroke="#4D4D4D" stroke-linecap="round" stroke-width="3" d="M3 173.112c3.662 54.469 2.468 109.099 2.468 163.698 0 1.513-.064 7.394 0 6.439.213-3.192 4.787-2.466 6.856-2.466 16.958 0 31.603 12.329 48.676 12.329"/><path stroke="#4D4D4D" stroke-linecap="round" stroke-width="3" d="M60 353.112c0-19.755-.454-39.593-1.74-59.296-1.513-23.162-5.282-47.103-3.997-70.331.613-11.094 1.882-21.846 2.256-32.972.079-2.343 1.16-9.268 1.16-6.924v6.649M59 187.112c21.057-8.382 42.735-17.268 61.25-30.136 5.036-3.499 11.224-5.522 16.25-9.054 3.515-2.47 7.944-5.81 12.5-5.81"/><path stroke="#4D4D4D" stroke-linecap="round" stroke-width="3" d="M14 180.112c13.551.205 26.724 4.411 40.152 6.226 1.851.25 11.228 1.565 8.279.07"/><path stroke="#4D4D4D" stroke-linecap="round" stroke-width="3" d="M60 186.112c-5.128 5.039-9.745 13.067-15.278 17.2-4.302 3.213-7.012 10.26-11.597 12.763-1.039.568-5.05-5.696-6.25-6.689-3.285-2.719-6.612-5.248-9.93-7.917-3.026-2.433-5.258-8.356-6.945-11.672m-8-19.685c12.327-1.093 22.766-9.725 34.015-13.884 9.36-3.462 19.88-5.377 28.76-9.706 4.763-2.321 10.465-3.675 15.003-6.133.847-.459 7.575-3.389 4.356-1.82M108 137.112c-.385 6.256-11.303 10-17 10m16-20c13.708 0 28.641.269 41.548 4.857 4.086 1.452 6.609 3.643 11.112 3.643 1.551 0-2.636 1.599-3.934 2.428-3.49 2.231-6.85 3.331-10.214 6.072m9.488-5c0 18.409 5 36.25 5 54.607v49.12c0 13.639-2.5 27.031-2.5 40.75v18.523"/><path stroke="#4D4D4D" stroke-linecap="round" stroke-width="3" d="M63 359.112c14.168-3.942 26.833-14.555 38.899-22.611 11.233-7.5 22.531-13.189 32.925-21.706 5.51-4.515 11.634-8.497 16.948-13.288 2.509-2.261 8.823-5.867 2.501-3.757M87.5 148.111c.39-33.168 2.5-66.333 2.5-99.5 0-2.891-2.214-21 3.278-21 4.086 0 7.938-3.298 11.972-4 4.316-.75 8.313-2.084 12.25-4 4.728-2.3 9.826-3.292 14.722-5.11 5.001-1.858 9.895-3.724 15.167-4.778 6.439-1.288 12.839-3.935 18.861-6.612 1.422-.632-.575 2.04-.75 3-.478 2.627-1 5.294-1 7.973 0 4.503 4.36 4.966 6.972 2.027 2.536-2.852 4.426-7.67 4-11.5-.295-2.652-6.127-3.517-7.472-1.5"/><path stroke="#4D4D4D" stroke-linecap="round" stroke-width="3" d="M162.5 21.112c-8.7 0-17.384 2.71-25.834 4.61-6.583 1.482-12.86 3.95-19.194 6.167-1.307.458-13.3 5.894-12.972 6.223m-7.5-3.5c1.723 4.785 3.019 4.5 7.5 4.5"/><path stroke="#4D4D4D" stroke-linecap="round" stroke-width="3" d="M104 37.612c0 5.13 1 10.133 1 15.194 0 5.349-.218 10.72.389 16.028.728 6.367-.237 12.911.139 19.305.418 7.117.972 14.226.972 21.361v29.612m8.5 121.19c-10.513.078-19.081.84-29 4.612-4.525 1.72-10 7.141-10 12.388 0 3.198 2.712 7.348 5.972 8 5.538 1.108 10.881 1 16.528 1 5.859 0 13.095-.07 18.222-3 .619-.353 1.132-.769 1.778-1.111 1.21-.64.157-.611-.528-1.639-1.212-1.817-6.34-4.014-6.472-6.25-.157-2.664 6.248.299 7.5.612 2.581.645 5.113 1.388 7.75 1.388 2.529 0 3.506.827 6.028-.777 2.002-1.275 5.722-2.567 5.722-5.223 0-5.994-7-8-11.75-9-6.25-.983-8.339-.983-13.25-.983m5 22.483c0 2.774-.701 5.416-.472 8.278.086 1.08.535 6.596.972 5.722"/><path stroke="#4D4D4D" stroke-linecap="round" stroke-width="3" d="M131.905 276.802c0 3.501.603 6.461.932 9.859.053.545.453 5.728-.239 5.931-2.383.702-6.988-.535-9.324-1.071-1.836-.42-3.384-.878-5.274-.878m1 8.159c-3.643 5.061-14.52 3.894-20 4.75-7.374 1.153-13.656.745-20.278-2.75-4.271-2.254-2.222-6.153-2.222-10.25v-11.75"/><path stroke="#4D4D4D" stroke-linecap="round" stroke-width="3" d="M132 294.302c3.378 0 4.377-3.007 7-4.611 1.187-.725.5-5.222.5-6.389 0-2.379-.5-4.598-.5-7 0-1.84.236-4.894-2-4m-16.75-26.375c1.686.843 3.322 1.742 5.049 2.5.954.419 1.889 1.002 2.889 1.306 1.266.385 2.449.703 3.562 1.444m0-.25c.315-1.38-.295-2.814-.472-4.194-.142-1.102-.427-2.188-.625-3.278a18.422 18.422 0 0 1-.278-3.153m0-1.125c2.342-1.321 4.973-2.146 7.472-3.125.354-.138 2.564-.642 2.403-1.125"/><path stroke="#4D4D4D" stroke-linecap="round" stroke-width="3" d="M140.125 235.052c0 2.785.25 5.535.25 8.32 0 .849-.125 1.691-.125 2.528 0 .496.243 1.277-.375 1.277"/><path stroke="#4D4D4D" stroke-linecap="round" stroke-width="3" d="M140 246.927c-1.815 1.435-3.94 2.144-5.875 3.375-.408.26-.837.618-1.25.848-.301.167-.303.545-.625.652m-15.25-16.5c2.783 1.312 5.636 2.618 8.625 3.375.742.189 1.523.339 2.25.57.471.15.871.43 1.375.43m-10.875-6.625c2.987-.249 5.857.45 8.813.82 2.122.265 4.181.305 6.312.305 2.313 0 4.558.625 6.875.625"/><path stroke="#4D4D4D" stroke-linecap="round" stroke-width="3" d="M117.125 233.302c0 1.479.248 3.023.625 4.459.334 1.272.488 2.604.875 3.861.395 1.282.945 2.971.5 4.305M71 199.5c0 2.582 1.366 13.567-.5 14.5"/><path stroke="#4D4D4D" stroke-linecap="round" stroke-width="3" d="M70.5 201c.113-1.923 3.16-5.266 4.5-2.25.917 2.063.6 4.727-.778 6.5-.395.508-2.049 1.75-1.722 1.75 1.338 0 2.144-.078 3 1.111.726 1.008 4.279 2.5 3.5 2.889m3.5-15v8.028c0 .763.44 5.593 1 4.472M94 190c-1.795 1.901-4.5 5.095-4.5 7.75 0 1.496 3.185.243 3.472 2.25.258 1.803.425 5.041-.472 6.611-.345.604-2.5 4.458-2.5 1.889m9-20c.756 1.702 1.675 13.663 0 14.5m7-17.5c0 2.922-.949 5.398-2.25 8-.289.578-2.701 3.5-1.5 3.5 1.361 0 3.979-.449 4.639 1.111.463 1.095 1.111 4.578 1.111 3.389m7.5-12c2.692-1.189 4.829-3.323 7.75-3.972 1.665-.37 3.923-.528 5.639-.528 3.388 0 6.046 6.075 6.111 8.889.191 8.194 0 16.414 0 24.611 0 2.737-1.33-.83-2.5-2-.451-.451-.851-1.02-1.278-1.5-.23-.259-.109-1.444-.472-1.444-.448 0 .975 2.617 1.139 2.944.383.767 3.122 4.579 3.722 3.5.924-1.662 1.948-3.767 3.139-5.222.321-.392 1.632-1.778 1.25-1.778"/></svg>
